src/images/marker--gate.svg

<svg id="Layer_1" data-name="Layer 1" xmlns="http://www.w3.org/2000/svg" viewBox="0 0 139.8 139.8"><defs><style>.cls-1{fill:#58d118;opacity:0.38;isolation:isolate;}.cls-2{fill:#49aa0b;}.cls-3{fill:#fff;}</style></defs><circle class="cls-1" cx="69.9" cy="69.9" r="69.9"/><circle class="cls-2" cx="71" cy="69.85" r="57.9"/><path class="cls-3" d="M91.7,43.6A4.44,4.44,0,0,0,87.3,48v1.4a6.28,6.28,0,0,0-4-1.4h-31a4.35,4.35,0,0,0-4.4-4.3,4.44,4.44,0,0,0-4.4,4.4v47a1.11,1.11,0,0,0,1.1,1.1H51a1.11,1.11,0,0,0,1.1-1.1V92h31a6.28,6.28,0,0,0,4-1.4v4.6a1.11,1.11,0,0,0,1.1,1.1h6.4a1.11,1.11,0,0,0,1.1-1.1V48A3.89,3.89,0,0,0,91.7,43.6ZM93.8,48V93.8H89.7V48a2.11,2.11,0,0,1,2.1-2.1A2,2,0,0,1,93.8,48ZM87.4,58.3V81.4H80.5V58.3Zm-9.2,0V81.4H71V58.3Zm-9.5,0V81.4H61.5V58.3ZM52.4,56V50.2h31a4,4,0,0,1,4,4V56Zm0,25.4V58.3h6.9V81.4Zm35,2.3v1.9a4,4,0,0,1-4,4h-31V83.7ZM50.1,48V93.8H46V48a2.11,2.11,0,0,1,2.1-2.1A2,2,0,0,1,50.1,48Z"/></svg>

<?xml version="1.0" encoding="utf-8"?>
<!-- Generator: Adobe Illustrator 24.2.1, SVG Export Plug-In . SVG Version: 6.00 Build 0)  -->
<svg version="1.1" id="Layer_1" xmlns="http://www.w3.org/2000/svg" xmlns:xlink="http://www.w3.org/1999/xlink" x="0px" y="0px"
	 viewBox="0 0 139.7 139.7" style="enable-background:new 0 0 139.7 139.7;" xml:space="preserve">
<style type="text/css">
	.st0{opacity:0.38;fill:#F5A91C;}
	.st1{fill:#F5A91C;}
	.st2{fill:#FFFFFF;}
</style>
<circle class="st0" cx="69.9" cy="69.9" r="69.9"/>
<circle class="st1" cx="69.9" cy="69.9" r="57.9"/>
<path class="st2" d="M91.7,43.6c-2.4,0-4.4,2-4.4,4.4v1.4c-1.1-0.9-2.5-1.4-4-1.4h-31c0-2.4-2-4.3-4.4-4.3c-2.4,0-4.4,2-4.4,4.4v47
	c0,0.6,0.5,1.1,1.1,1.1h6.4c0.6,0,1.1-0.5,1.1-1.1v-3.1h31c1.5,0,2.9-0.5,4-1.4v4.6c0,0.6,0.5,1.1,1.1,1.1h6.4
	c0.6,0,1.1-0.5,1.1-1.1V48C96.1,45.6,94.1,43.6,91.7,43.6z M93.8,48v45.8h-4.1V48c0-1.1,0.9-2.1,2.1-2.1S93.8,46.9,93.8,48z
	 M87.4,58.3v23.1h-6.9V58.3H87.4z M78.2,58.3v23.1H71V58.3H78.2z M68.7,58.3v23.1h-7.2V58.3H68.7z M52.4,56v-5.8l31,0
	c2.2,0,4,1.8,4,4V56L52.4,56z M52.4,81.4V58.3h6.9v23.1H52.4z M87.4,83.7v1.9c0,2.2-1.8,4-4,4h-31v-5.9H87.4z M50.1,48v45.8h-4.1V48
	c0-1.1,0.9-2.1,2.1-2.1S50.1,46.9,50.1,48z"/>
</svg>
